!!!OTL: Schloss in Oesterreich Das ganze Dorf versammelt sich
!!!ARE: Europa, Mitteleuropa, Deutschland
!!!YOR: 1, S. 274  komponiert
!!    1842 gedruckt
!!!SCT: Q1024M
!!!YEM: Copyright 1995, estate of Helmut Schaffrath.
**kern
*ICvox
*Ivox
*M3/4
*k[f#c#]
*D:
{8d
=1
8d
8f#
8a
8f#
8g
8e
=2
8f#
8f#
8f#
8d}
{8e
8c#
=3
8d
8a
8a
8g
8g
8f#
=4
4f#
4e
8r}
{8a
=5
8a
8cc#
8ee
8cc#
8a
8g
=6
8f#
8a
4.dd}
{8dd
=7
8dd
8b
8a
8f#
8g
8e
=8
4e
4d
8r}
==
!!!AGN: Ballade, ??
!! Variante (Ursprung ?) von Q0024ON ff. Anderes Lied.
!!!ONB: ESAC (Essen Associative Code) Database: BALLADE
!!!AMT: simple triple
!!!AIN: vox
!!!EED: Helmut Schaffrath
!!!EEV: 1.0
*-
